!!!COM:	Martini, Johannes
!!!CDT:	~1440///-~1497//
!!!OTL:	Nenciozza mia
!!!AGN:	Song; Chanson
!!!SCT:	Mar3020
!!!SCA:	Mar3020
!!!voices:	4
**kern	**kern	**kern	**kern
*staff4	*staff3	*staff2	*staff1
*Ivox	*Ivox	*Ivox	*Ivox
*I"Bassus	*I"Tenor	*I"Contra	*I"Cantus
*I'B	*I'T	*I'C	*I'Cn
*clefF4	*clefGv2	*clefGv2	*clefG2
*k[]	*k[]	*k[]	*k[]
*M2/1	*M2/1	*M2/1	*M2/1
*met(C|)	*met(C|)	*met(C|)	*met(C|)
=1-	=1-	=1-	=1-
0c	0r	1.c	1.cc
.	.	2d\	4b\
.	.	.	4a/
=2	=2	=2	=2
1c	0c	1e	1g
1A	.	1f	1a
=3	=3	=3	=3
1G	[0d	1g	1b
2F\	.	1r	[1a
[2D\	.	.	.
=4	=4	=4	=4
4D\]	1d]	0a	2a/]
4E\	.	.	.
4F\	.	.	4g/
4G\	.	.	4f/
2A\	1c	.	2e/
2F\	.	.	[2a/
=5	=5	=5	=5
1G	1B	0d	4a/]
.	.	.	4g/
.	.	.	1g
1D	1A	.	.
.	.	.	2f#i/
=6	=6	=6	=6
1.E	0G	0B	1.g
2D\	.	.	2f/
=7	=7	=7	=7
1C	1G	1c	1e
[1G	[1B	1d	1d
=8	=8	=8	=8
2G\]	1B]	2B\	1g
2F\	.	2c\	.
1D	1A	1d	1f
=9	=9	=9	=9
2.C/	0c	1.G	2.e/
4D\	.	.	4f/
2E\	.	.	2g/
[2F\	.	2F/	[2a/
=10	=10	=10	=10
4F\]	1d	2A/	4a/]
4E\	.	.	4g/
2.G\	.	2G/	2.b\
.	1B	2B\	.
4F\	.	.	4a/
2G\	.	[2d\	[2g/
=11	=11	=11	=11
0D	0A	2d\]	2g/]
.	.	2A/	4f#i/
.	.	.	4e/
.	.	2.d\	1f#i
.	.	4c\	.
=12	=12	=12	=12
0d	[0G	2.B\	0g
.	.	4c\	.
.	.	2d\	.
.	.	[2g\	.
=13	=13	=13	=13
1r	0G]	2g\]	1r
.	.	4f\	.
.	.	4e\	.
1G	.	1d	1b
=14	=14	=14	=14
1A	0r	2c\	1cc
.	.	2A/	.
2G\	.	2B\	2b\
[2F\	.	[2d\	[2a/
=15	=15	=15	=15
2F\]	0r	4d\]	2a/]
.	.	4c\	.
2E\	.	1c	4g/
.	.	.	4a/
1D	.	.	4b\
.	.	.	4a/
.	.	2B\	4g/
.	.	.	4f/
=16	=16	=16	=16
1.C	0c	2.c\	2.e/
.	.	4d\	4f/
.	.	2e\	2g/
[2F\	.	[2c\	[2a/
=17	=17	=17	=17
1F]	1A	2c\]	4a/]
.	.	.	4g/
.	.	2A/	4f/
.	.	.	4e/
1C	1G	1c	[1e
=18	=18	=18	=18
0D	1.F	1.A	2e/]
.	.	.	4d/
.	.	.	4c/
.	.	.	1d
.	2E/	2B\	.
=19	=19	=19	=19
1C	0E	1c	2.e/
.	.	.	4f/
[1G	.	1B	2.g/
.	.	.	4a/
=20	=20	=20	=20
2G\]	1E	1G	2b\
4F\	.	.	2.cc\
4E\	.	.	.
[1F	[1A	1r	.
.	.	.	4b\
.	.	.	4a/
.	.	.	4g/
=21	=21	=21	=21
2F\]	1A]	1c	2a/
2E\	.	.	1g
1D	1A	1d	.
.	.	.	2f#i/
=22	=22	=22	=22
1E	0G	1B	2g/
.	.	.	2.e/
1C	.	1c	.
.	.	.	4f/
.	.	.	[2g/
=23	=23	=23	=23
1G	1E	1B	4g/]
.	.	.	4f/
.	.	.	2e/
1A	1F	1A	2d/
.	.	.	[2f/
=24	=24	=24	=24
0F	1.D	1r	4f/]
.	.	.	4e/
.	.	.	4d/
.	.	.	4c/
.	.	1d	1B
.	2C/	.	.
=25	=25	=25	=25
1G	0C	0e	1c
1E	.	.	1r
=26	=26	=26	=26
*M3/1	*M3/1	*M3/1	*M3/1
*met(3)	*met(3)	*met(3)	*met(3)
1.F	0.r	0A	1c
.	.	.	1d
2E\	.	.	.
1D	.	1F	1f
=27	=27	=27	=27
1.C	0.c	0G	1.e
2D\	.	.	2f/
1E	.	1G	1g
=28	=28	=28	=28
0.D	0.d	0A	0f
.	.	1d	[1a
=29	=29	=29	=29
0.r	1c	1e	1a]
.	1B	1d	1b
.	1A	2.f\	1cc
.	.	4e\	.
=30	=30	=30	=30
0d	0G	0g	1.dd
.	.	.	2cc\
[1G	1G	1g	2b\
.	.	.	2a/
=31	=31	=31	=31
1G]	0B	1d	0g
1E	.	1e	.
1F	1A	[1c	1f
=32	=32	=32	=32
1C	0c	1c]	1e
1.F	.	0A	1.a
.	1d	.	.
2E\	.	.	2g/
=33	=33	=33	=33
1G	1B	1B	0g
0D	0A	1.d	.
.	.	.	1f#i
.	.	2c\	.
=34	=34	=34	=34
1.E	[0.G	1B	1.g
.	.	1G	.
2F\	.	.	2f/
1G	.	1B	1d
=35	=35	=35	=35
1.C	0.G]	0c	1e
.	.	.	1c
2D\	.	.	.
1E	.	1B	1r
=36	=36	=36	=36
1F	0.r	1A	0cc
1C	.	1.c	.
1F	.	.	1a
.	.	2B\	.
=37	=37	=37	=37
1E	0.r	1c	1g
0D	.	1d	0f
.	.	1B	.
=38	=38	=38	=38
0C	0c	1c	1e
.	.	1e	1g
1D	1A	1d	1f
=39	=39	=39	=39
1E	1G	1c	1.e
1F	1.F	1.A	.
.	.	.	2c/
1A	.	.	1d
.	2E/	2G/	.
=40	=40	=40	=40
0G	0E	0B	1.e
.	.	.	2f/
1E	1E	1c	1g
=41	=41	=41	=41
1D	0A	1.d	1f
1.F	.	.	1c
.	.	2c\	.
.	1A	1A	1f
2E\	.	.	.
=42	=42	=42	=42
0.C	0G	1.c	1g
.	.	.	1.e
.	.	2B\	.
.	1E	1G	.
.	.	.	2d/
=43	=43	=43	=43
0F	1F	1A	0c
.	1.D	1.F	.
1D	.	.	1B
.	2C/	2E/	.
=44	=44	=44	=44
0.El	0.Cl	0.Gl	0.cl
==	==	==	==
*-	*-	*-	*-
!!!RDF**kern: l=long note in original notation
!!!RDF**kern: i=editorial accidental
!!!ENC:	Chris Gage 11-06-2014
!!!END:	2015/03/02/
!!!EED:	Jesse Rodin
!!!EEV:	2015/03/05/
!!!ONB:	Translated from MusicXML and edited on 2015/03/05/ by Craig Sapp
!!muse2ps: C^@{COM}^i2I150v85,85,85,150Q16
